X: 17104
T: Heel And Toe, The
R: polka
M: 2/4
K: Dmajor
|:FA GB|Ad fd/f/|ge ed/e/|fd d2|
FA GB|Ad fd/f/|ge ce|1 d2 d2:|2 d2 cB||
|:Ad F2|AG E2|DD FA|d2 dc/B/|
Ad F2|AG EF/E/|DD FA|1 d2 cB:|2 d2 d2||

